X: 291
T: Miss Dallas's Strathspey
C: By j Pringle
B: John Pringle "Collection of Reels Strathspeys & Jigs", 1801 p.29#1
Z: 2011 John Chambers <jc:trillian.mit.edu>
R: strathspey
M: C
L: 1/8
K: D
V: 1
A |: d<df>d a>fg>e | d<df>d c<ec>A | d<df>d a>df>d | (3gag (3fgf (3efd (3cBA :|
d>AF>A d>Af>d | d>AF>A B<dc>A | d>AF>A G<BF<A | ~Be (g/f/e/d/) c<e~e>f |
d>AFA G>BFA | d>AFA B<ecA | d>fA=c BgG>B | (3cef (3gec (3dAG (3FED |]
V: 2 clef=bass middle=d
z |: d2d2 f2d2 | d2d2 A2A2 | d2d2 f2d2 | e2d2 c2A2 :|
d2d2 f2d2 | d2d2 g2a2 | d2d2 e2d2 | g2^g2 a2A2 |
d2d2 e2d2 | d2d2 g2a2 | d3=c G3^G | A2a2 A2z2 |]

%%sep 2 1 500

